X:1
T:Chigwell, 87.87 D
T:Chigwell, 87.87 D
T:Claude Goudimel (1514-1572)
T:Public Domain Courtesy of the Cyber Hymnal™
C:Claude Goudimel (1514-1572)
Z:Public Domain
Z:Courtesy of the Cyber Hymnal™
%%score ( 1 2 ) 3
L:1/8
M:4/4
K:G
V:1 treble 
V:2 treble 
V:3 bass 
V:1
 G4 [FA]2 [GB]2 | [GB]2 [FA]2 [EG]2 [DF]2 | [CE]4 [B,D]4 | z4 [DG]4 | [FA]2 [GB]4 [Gc]2 | %5
 [GB]4 [FA]4 | G4 z4 | G4 [FA]2 [GB]2 | [GB]2 [FA]2 [EG]2 [DF]2 | [CE]4 [B,D]4 | z4 [DG]4 | %11
 [FA]2 [GB]4 [Gc]2 | [GB]4 [FA]4 | G4 z4 | [GB]4 [GB]2 [Gd]2 | [Gd]2 [Gc]2 [GB]2 [FA]2 | %16
 [GB]2 [GB]2 z4 | [Gd]4 [Gd]2 [Ge]2 | [Ge]2 [Gd]2 [Gc]2 [GB]2 | [FA]4 z4 | [GB]4 [Ad]2 [Ac]2 | %21
 [Ac]2 [GB]2 [EG]2 [FA]2 | [GB]4 [EG]4 | z4 [GB]4 | [GB]2 [Ec]4 [DB]2 | [FA]2 G2 (G2 F2) | [DG]8 |] %27
V:2
 G4 x4 | x8 | x8 | x8 | x8 | x8 | G4 x4 | G4 x4 | x8 | x8 | x8 | x8 | x8 | G4 x4 | x8 | x8 | x8 | %17
 x8 | x8 | x8 | x8 | x8 | x8 | x8 | x8 | x2 G2 D4 | x8 |] %27
V:3
 [G,B,]4 [D,D]2 [G,D]2 | [G,D]2 [D,D]2 [E,B,]2 [B,,B,]2 | [C,G,]4 [G,,G,]4 | z4 [G,B,]4 | %4
 [D,D]2 [G,D]4 [C,E]2 | [G,D]4 [D,D]4 | [G,,B,]4 z4 | [G,B,]4 [D,D]2 [G,D]2 | %8
 [G,D]2 [D,D]2 [E,B,]2 [B,,B,]2 | [C,G,]4 [G,,G,]4 | z4 [G,B,]4 | [D,D]2 [G,D]4 [C,E]2 | %12
 [G,D]4 [D,D]4 | [G,,B,]4 z4 | [G,D]4 [G,D]2 [G,B,]2 | [G,B,]2 [C,E]2 [G,D]2 [D,D]2 | %16
 [G,D]2 [G,D]2 z4 | [G,B,]4 [G,B,]2 [C,C]2 | [C,C]2 [G,B,]2 [C,E]2 [G,D]2 | [D,D]4 z4 | %20
 [G,D]4 [D,=F]2 [A,E]2 | [A,E]2 [E,E]2 [E,B,]2 [D,D]2 | [G,D]4 [C,C]4 | z4 [G,,D]4 | %24
 [G,,D]2 [C,G,]4 [G,,G,]2 | [D,A,]2 [E,C]2 [D,A,]4 | [G,,B,]8 |] %27

